!!!COM: Gomółka, Mikołaj
!!!CDT: ~1535-after 1591
!!!OTL@POL: Ciebie będę, Boże Prawy
!!!OTL@LAT: Confitebor tibi, Domine
!!!AGn: Motet; Psalm
!!!SCn: Gom2009
!!!SCn: Gom2009
!!!voices: 4
**kern	**kern	**kern	**kern
*staff4	*staff3	*staff2	*staff1
*Ivox	*Ivox	*Ivox	*Ivox
*I"Bassus	*I"Tenor	*I"Altus	*I"Cantus
*I'B	*I'T	*I'A	*I'C
*clefF4	*clefGv2	*clefGv2	*clefG2
*k[b-]	*k[b-]	*k[b-]	*k[b-]
*M2/1	*M2/1	*M2/1	*M2/1
*met(C|)	*met(C|)	*met(C|)	*met(C|)
=1-	=1-	=1-	=1-
1F	1c	1f	1.a
1D	2.d	2.f	.
.	.	.	4b-
.	4c	4e	4a
=2	=2	=2	=2
1G	1B-	1d	4g
.	.	.	4f
.	.	.	2g
2C	2c	2e	2g
[2c	[2e	[2g	[2cc
=3	=3	=3	=3
2c]	2e]	2g]	2cc]
2A	1f	4a	2cc
.	.	4g	.
1c	.	4f	2a
.	.	4e	.
.	4e	2f	2bni
.	4d	.	.
=4	=4	=4	=4
2c	2e	2g	2cc
2F	2f	2a	2cc
2.B-	2f	2b-	2.dd
.	[2d	4B-	.
4A	.	4c	4cc
=5	=5	=5	=5
1G	4d]	4d	2b-
.	4c	4c	.
.	2B-	4d	4a
.	.	4e	4g
2F	2c	2f	4a
.	.	.	4b-
2E	2e	2g	[2cc
=6	=6	=6	=6
2F	1d	2a	2cc]
2G	.	4g	2bn
.	.	4f	.
2C	2c	2e	2cc
2c	2e	2g	2cc
=7	=7	=7	=7
1F	2.f	2.a	1cc
.	4e	4g	.
1B-	1d	2f	2.f
.	.	2d	.
.	.	.	4g
=8	=8	=8	=8
2A	2c	2e	2a
2D	2d	2f	1a
2G	2B-	4d	.
.	.	4c	.
2G	2B-	4d	2g
.	.	4e	.
=9	=9	=9	=9
2F	2A	2f	2a
2C	2c	2e	2g
2F	2A	4f	2a
.	.	4e	.
2BB-	4B-	2d	4g
.	4A	.	4f
=10	=10	=10	=10
2C	2G	2c	2e
2D	2F	2B-	1f
1C	1G	2.c	.
.	.	.	2e
.	.	4B-	.
=11	=11	=11	=11
0F	0F	0A	0f
==	==	==	==
*-	*-	*-	*-
!!!CNT: Polish
!!!OCY: Poland
!!!LYR: Jan Kochanowski (1530-1584/08/22)
!!!GTL: Melodiae na Psałterz Polski
!!!EFL: 9/150
!!!PPR: Łazarz Andrysowicz
!!!PPP: Kraków
!!!PDT: 1580
!!!YEC: 2015 Marcin Konik
!!!ENC: Marcin Konik
!!!END: 2015/03/06
!!!EED: Marcin Konik
!!!EEV: 2015/03/06
!!!ONB: Translated from MusicXML and edited on 2015/03/06 by Marcin Konik
!!!CharacterEncoding: utf-8
!!muse2ps: i2I150v85,85,85,150Q16
!!title: @{OTL}, @{GTL}, ed. @{ENC}
